X: 29325
T: New York, The
R: jig
M: 6/8
K: Cmajor
|:gec ceg|fd_B _Bdf|gec cde|fef f a2|
gec ceg|fd_B _Bdf|ece dBG|c3 c3:|
|:CEG cGE|FEF DED|CEG cGc|ece d2 B|
ced cGE|FEF DEF|ECE FDB,|DCC C3:|

